X: 1
T: Deck The Halls
M: 4/4
L: 1/8
R: hornpipe
K: Gmaj
|:d3c B2A2|G2A2 B2G2|1ABcA B3A|G2F2 G2Bc:|2ABcA B3A|G2F2 G2D2||
A3B c2A2|B3c d2A2|Bcd2 efg2|(3fgf(3efe d2Bc|
d3c B2A2|G2A2 B2G2|e3e d3c|B2A2 G4||
